icon-svg/shed-closed.svg

<svg xmlns="http://www.w3.org/2000/svg" fill="#44739e" viewBox="0 0 24 24"><path d="m13.865 11.719.537.033v-.494l-.547-.045zm0-.714.537.033v-.493l-.547-.045Zm0-.718.537.034v-.493l-.547-.045Zm0-.754.537.033v-.494l-.547-.045Zm0-.713.537.033v-.494l-.547-.043Zm-.571 9.338.451-.053v-6.073l-.028-3.807-.46-.042ZM12.6 8.152l.068 9.956.546.049-.08-10.032zm8.807.743h-.18L20.15 8.8l-.2-.02-1.256-.105-1.23-.067L16.2 8.5l-.358-.036-1.3-.108v3.4l1.3.019.336-.019 1.292.019 1.26.021 1.278.027h1.253v.292l-7.561-.086v.473l7.572.091v.182l-7.572-.062v.46l7.575.029v.2h-7.576v.461l7.579-.033v.123l-7.578.149v.461l7.58-.183v.168l-7.582.217v.46l7.584-.25v.174l-7.585.284v.526l7.587-.384v.224l-7.588.381v.458l7.591-.413v.157l-7.591.48v.536l7.593-.59v.16l-7.593.671v.466l-.451.054 8.147-.77.082-.023zm-1.029 2.743L20.329 9l.847.074.051 2.561zm-1.471-.021-.039-2.739.906.076.06 2.683zm-2.547-.04.018-2.877.907.076.014 2.81zm-.688.013-.947-.013V8.562l.947.079zM5.025 8l-.837.416L12.32 8l-1.235-.38Zm1.155-.578-.95.47 5.691-.345-1.076-.332Zm1.7-.274h-.032L7.631 6.7l-1.3.637 3.255-.188-1.562-.503Zm-.2-.853L3.319 8.413l-.064.026.664-.026 3.758-1.821-.059-.142Zm.313-.054 5.037 1.584.107.031v.115L12.582 8 8.024 6.544 8.07 6.4Zm5.261 1.823 8.518.713.049-.1-8.512-.73zM8.161 6.241 13.146 7.8l8.706.8-4.768-1.38Zm.114 11.034v-.178l.428.044.11.013.439.046.112.011.449.047.115.012.458.049.119.013.468.05.122.011.48.051.125.014.491.052.122.012.01.2-.133-.022-.491-.054-.125-.013-.479-.052-.122-.013-.468-.052-.119-.012-.458-.051-.116-.012-.448-.049-.112-.011-.439-.048-.11-.013Zm3.272-3.888.123.006.027 4.025-.125-.014zm-.6-.026.12.006.03 3.988-.122-.014zm-.591-.025.116.006.035 3.951-.119-.012zm-.578-.025.115.006.037 3.916-.12-.013Zm-.563-.022h.111l.04 3.881-.113-.012Zm-.552-.023h.108l.044 3.846-.11-.011zm3.01.086h-.122l-.484-.021-.121-.005-.474-.019-.116-.005-.464-.02-.114-.005-.453-.018-.11-.005-.444-.019h-.108l-.41-.016-.005-.182.413.016h.108l.443.017h.111l.453.017.115.005.463.017h.116l.475.019h.12l.485.017.122.006.5.018v.2zM8.612 8.94h.107l.045 4.074h-.108Zm2.907-.073h.121l.028 4.254h-.123Zm-.609.014h.118l.033 4.216h-.12zm-.6.016h.116l.035 4.18h-.116Zm-.581.015h.113l.039 4.144h-.114Zm-.567.014h.109l.043 4.109-.111-.005Zm2.472-.1h-.12l-.492.013h-.117l-.48.012h-.115l-.468.012h-.113l-.458.013h-.109l-.444.024h-.106l-.393.011v-.184l.391-.011h.107l.448-.016h.109l.458-.013h.113l.469-.014h.114l.48-.014h.118l.492-.014h.12l.5-.016.191-.005v.2l-.19.006zm-3.41 8.485.046.005v.314l.428.05v-.317l.111.012v.325l.437.051v-.327l.113.012v.336l.448.052v-.34l.115.014v.346l.457.055v-.35l.119.012v.358l.467.055v-.362l.122.014v.369l.479.056v-.372l.125.012v.383l.49.058v-.386l.181.02-.014-.275-.169-.017-.021-4.057.216.01-.007-.279-.21-.008-.024-4.285.239-.006v-.287l-.241.008v-.417l-.5.007v.425h-.12v-.4l-.493.006v.407H10.9v-.379l-.481.006v.387l-.114.005v-.362l-.47.006v.369h-.113v-.342h-.458v.352h-.11v-.326h-.449v.334h-.107v-.309l-.439.006.056 4.617H8.2l.009.256h.017l.046 3.813-.057-.006Zm-.667-.145-.112-.018-.433-.064-.11-.016-.42-.068-.107-.016-.415-.062-.1-.015-.406-.062-.1-.014-.4-.061-.1-.014-.398-.056-.1-.016v-.16l.095.012.391.057.1.016.4.057.1.016.406.059.106.016.416.06.106.017.425.061.11.016.433.063.113.017.443.062v.174zm-2.62-.589-.1-.015-.09-3.474.1.007zm.5.073-.1-.015-.083-3.518.1.006zm.512.073L5.85 16.7l-.076-3.561h.1zm.523.076-.107-.014-.065-3.612.107.006Zm.534.079-.11-.016L6.84 13.2l.109.006Zm.546.08-.113-.017-.055-3.7h.112Zm-3.199-3.931-.006-.167.4.02.1.006.406.021.1.006.414.022h.1l.424.023.107.006.432.023.11.006.443.023h.111l.43.024v.18l-.424-.015-.109-.005-.442-.025-.11-.007-.432-.023-.107-.008-.423-.025-.1-.005-.415-.024-.1-.005-.406-.023-.1-.006ZM7.5 12.99l-.111-.007-.06-4 .11-.005zm-2.653-.14h-.1l-.1-3.74h.1zm.508.027-.1-.005-.09-3.79.1-.005zm.518.027-.1-.005-.089-3.842h.1zm.531.028-.104-.005-.08-3.895.107-.005Zm.542.028-.109-.005-.069-3.948L6.877 9Zm-2.7-3.87-.153.01-.006-.172.151-.009.4-.02.1-.006.414-.02.1-.007.423-.022h.1l.432-.023.106-.005.442-.023.109-.006.451-.023h.112l.412-.022v.186l-.413.02-.111.005-.451.022-.109.005-.441.022h-.106l-.432.021h-.1l-.422.02-.1.005-.413.02-.1.005zm3.819 7.936L8 17.017l-.047-3.75h.019v-.254h-.021l-.058-4.647-.463.034v.309l-.111.006v-.333l-.452.039v.318l-.108.006-.007-.342-.442.037.007.328h-.106l-.007-.351-.434.037.008.337h-.1l-.008-.36-.424.036.009.346-.1.006-.009-.369-.415.05.01.355-.1.006-.01-.379-.405.036.01.364-.189.009.009.244.187-.009.1 3.7-.163-.009v.236l.169.01.1 3.439-.131-.019v.227l.141.022.009.323.389.062-.008-.326.1.015.008.32.4.062-.008-.323.1.016.007.317.406.063-.007-.319.1.016.008.313.414.065-.006-.316.107.017.007.31.423.065v-.313l.11.017v.307l.433.066v-.308l.112.017v.3l.442.069v-.3l.049.006zM7.677 6.452l.182.491.131-.543-.157-.562Z"/></svg>

<?xml version="1.0" encoding="UTF-8"?>
<svg width="24px" fill="#44739e" height="24px" viewBox="0 0 24 24" version="1.1" xmlns="http://www.w3.org/2000/svg" xmlns:xlink="http://www.w3.org/1999/xlink">
            <path d="m 13.865,11.719 0.537,0.033 v -0.494 l -0.547,-0.045 z m 0,-0.714 0.537,0.033 V 10.545 L 13.855,10.5 Z m 0,-0.718 0.537,0.034 V 9.828 L 13.855,9.783 Z m 0,-0.754 0.537,0.033 V 9.072 L 13.855,9.027 Z m 0,-0.713 0.537,0.033 V 8.359 L 13.855,8.316 Z m -0.571,9.338 0.451,-0.053 v -0.467 -0.241 -0.536 -0.224 -0.458 -0.221 -0.526 -0.208 -0.46 -0.2 -0.461 -0.239 -0.462 -0.228 -0.459 -0.211 -0.472 L 13.717,8.225 13.257,8.183 Z M 12.6,8.152 l 0.068,9.956 0.546,0.049 -0.08,-10.032 z m 8.807,0.743 h -0.18 L 20.15,8.8 19.95,8.78 18.694,8.675 17.464,8.608 16.2,8.5 15.842,8.464 14.542,8.356 v 3.4 l 1.3,0.019 0.336,-0.019 1.292,0.019 1.26,0.021 1.278,0.027 h 1.253 v 0.292 L 13.7,12.029 v 0.473 l 7.572,0.091 v 0.182 L 13.7,12.713 v 0.46 l 7.575,0.029 v 0.2 h -7.576 v 0.461 l 7.579,-0.033 v 0.123 L 13.7,14.102 v 0.461 l 7.58,-0.183 v 0.168 l -7.582,0.217 v 0.46 l 7.584,-0.25 v 0.174 l -7.585,0.284 v 0.526 l 7.587,-0.384 v 0.224 l -7.588,0.381 v 0.458 l 7.591,-0.413 v 0.157 l -7.591,0.48 v 0.536 l 7.593,-0.59 v 0.16 l -7.593,0.671 v 0.466 l -0.451,0.054 8.147,-0.77 0.082,-0.023 z M 20.378,11.638 20.329,9 l 0.847,0.074 0.051,2.561 z m -1.471,-0.021 -0.039,-2.739 0.906,0.076 0.06,2.683 z m -2.547,-0.04 0.018,-2.877 0.907,0.076 0.014,2.81 z M 15.672,11.59 14.725,11.577 V 8.562 l 0.947,0.079 z M 5.025,8 4.188,8.416 12.32,8 11.085,7.62 Z M 6.18,7.422 5.23,7.892 10.921,7.547 9.845,7.215 Z M 7.88,7.148 H 7.848 L 7.631,6.7 6.331,7.337 9.586,7.149 8.024,6.646 Z M 7.68,6.295 3.319,8.413 3.255,8.439 3.919,8.413 7.677,6.592 7.618,6.45 Z M 7.993,6.241 13.03,7.825 13.137,7.856 V 7.971 L 12.582,8 8.024,6.544 8.07,6.4 Z m 5.261,1.823 8.518,0.713 0.049,-0.1 -8.512,-0.73 z M 8.161,6.241 13.146,7.8 21.852,8.6 17.084,7.22 Z m 0.114,11.034 v -0.178 l 0.428,0.044 0.11,0.013 0.439,0.046 0.112,0.011 0.449,0.047 0.115,0.012 0.458,0.049 0.119,0.013 0.468,0.05 0.122,0.011 0.48,0.051 0.125,0.014 0.491,0.052 0.122,0.012 0.01,0.2 L 12.19,17.7 11.699,17.646 11.574,17.633 11.095,17.581 10.973,17.568 10.505,17.516 10.386,17.504 9.928,17.453 9.812,17.441 9.364,17.392 9.252,17.381 8.813,17.333 8.703,17.32 Z m 3.272,-3.888 0.123,0.006 0.027,4.025 -0.125,-0.014 z m -0.6,-0.026 0.12,0.006 0.03,3.988 -0.122,-0.014 z m -0.591,-0.025 0.116,0.006 0.035,3.951 -0.119,-0.012 z M 9.778,13.311 9.893,13.317 9.93,17.233 9.81,17.22 Z M 9.215,13.289 H 9.326 L 9.366,17.17 9.253,17.158 Z M 8.663,13.266 h 0.108 l 0.044,3.846 -0.11,-0.011 z m 3.01,0.086 H 11.551 L 11.067,13.331 10.946,13.326 10.472,13.307 10.356,13.302 9.892,13.282 9.778,13.277 9.325,13.259 9.215,13.254 8.771,13.235 H 8.663 l -0.41,-0.016 -0.005,-0.182 0.413,0.016 h 0.108 l 0.443,0.017 h 0.111 l 0.453,0.017 0.115,0.005 0.463,0.017 h 0.116 l 0.475,0.019 h 0.12 l 0.485,0.017 0.122,0.006 0.5,0.018 v 0.2 z M 8.612,8.94 h 0.107 l 0.045,4.074 H 8.656 Z m 2.907,-0.073 h 0.121 l 0.028,4.254 H 11.545 Z M 10.91,8.881 h 0.118 l 0.033,4.216 h -0.12 z m -0.6,0.016 h 0.116 l 0.035,4.18 H 10.345 Z M 9.729,8.912 h 0.113 l 0.039,4.144 H 9.767 Z M 9.162,8.926 H 9.271 L 9.314,13.035 9.203,13.03 Z m 2.472,-0.1 h -0.12 l -0.492,0.013 h -0.117 l -0.48,0.012 H 10.31 L 9.842,8.863 H 9.729 L 9.271,8.876 H 9.162 L 8.718,8.9 H 8.612 L 8.219,8.911 V 8.727 L 8.61,8.716 H 8.717 L 9.165,8.7 H 9.274 L 9.732,8.687 h 0.113 l 0.469,-0.014 h 0.114 l 0.48,-0.014 h 0.118 l 0.492,-0.014 h 0.12 l 0.5,-0.016 0.191,-0.005 v 0.2 l -0.19,0.006 z m -3.41,8.485 0.046,0.005 v 0.314 l 0.428,0.05 v -0.317 l 0.111,0.012 V 17.7 l 0.437,0.051 v -0.327 l 0.113,0.012 v 0.336 l 0.448,0.052 v -0.34 l 0.115,0.014 v 0.346 l 0.457,0.055 v -0.35 l 0.119,0.012 v 0.358 l 0.467,0.055 v -0.362 l 0.122,0.014 v 0.369 l 0.479,0.056 v -0.372 l 0.125,0.012 v 0.383 l 0.49,0.058 v -0.386 l 0.181,0.02 -0.014,-0.275 -0.169,-0.017 -0.021,-4.057 0.216,0.01 -0.007,-0.279 -0.21,-0.008 -0.024,-4.285 0.239,-0.006 V 8.562 L 12.131,8.57 V 8.153 l -0.5,0.007 v 0.425 h -0.12 v -0.4 L 11.018,8.191 V 8.598 H 10.9 V 8.219 L 10.419,8.225 V 8.612 L 10.305,8.617 V 8.255 L 9.835,8.261 V 8.63 H 9.722 V 8.288 H 9.264 V 8.64 H 9.154 V 8.314 H 8.705 V 8.648 H 8.598 V 8.339 L 8.159,8.345 8.215,12.962 H 8.2 l 0.009,0.256 H 8.226 L 8.272,17.031 8.215,17.025 Z M 7.557,17.166 7.445,17.148 7.012,17.084 6.902,17.068 6.482,17 6.375,16.984 5.96,16.922 5.86,16.907 5.454,16.845 5.354,16.831 4.954,16.77 4.854,16.756 4.456,16.7 4.356,16.684 v -0.16 l 0.095,0.012 0.391,0.057 0.1,0.016 0.4,0.057 0.1,0.016 0.406,0.059 0.106,0.016 0.416,0.06 0.106,0.017 0.425,0.061 0.11,0.016 0.433,0.063 0.113,0.017 L 8,17.053 v 0.174 z m -2.62,-0.589 -0.1,-0.015 -0.09,-3.474 0.1,0.007 z m 0.5,0.073 -0.1,-0.015 -0.083,-3.518 0.1,0.006 z M 5.949,16.723 5.85,16.7 5.774,13.139 h 0.1 z M 6.472,16.799 6.365,16.785 6.3,13.173 6.407,13.179 Z M 7.006,16.878 6.896,16.862 6.84,13.2 6.949,13.206 Z m 0.546,0.08 -0.113,-0.017 -0.055,-3.7 H 7.496 Z M 4.353,13.027 4.347,12.86 l 0.4,0.02 0.1,0.006 0.406,0.021 0.1,0.006 0.414,0.022 h 0.1 l 0.424,0.023 0.107,0.006 0.432,0.023 0.11,0.006 0.443,0.023 h 0.111 l 0.43,0.024 v 0.18 L 7.5,13.205 7.391,13.2 6.949,13.175 6.839,13.168 6.407,13.145 6.3,13.137 5.877,13.112 5.777,13.107 5.362,13.083 5.262,13.078 4.856,13.055 4.756,13.049 Z M 7.5,12.99 7.389,12.983 l -0.06,-4 0.11,-0.005 z M 4.847,12.85 h -0.1 l -0.1,-3.74 h 0.1 z m 0.508,0.027 -0.1,-0.005 -0.09,-3.79 0.1,-0.005 z m 0.518,0.027 -0.1,-0.005 -0.089,-3.842 h 0.1 z M 6.404,12.932 6.3,12.927 6.22,9.032 6.327,9.027 Z M 6.946,12.96 6.837,12.955 6.768,9.007 6.877,9 Z M 4.246,9.09 4.093,9.1 4.087,8.928 4.238,8.919 l 0.4,-0.02 0.1,-0.006 0.414,-0.02 0.1,-0.007 0.423,-0.022 h 0.1 L 6.207,8.821 6.313,8.816 6.755,8.793 6.864,8.787 7.315,8.764 H 7.427 L 7.839,8.742 V 8.928 L 7.426,8.948 7.315,8.953 6.864,8.975 6.755,8.98 6.314,9.002 H 6.208 L 5.776,9.023 h -0.1 l -0.422,0.02 -0.1,0.005 -0.413,0.02 -0.1,0.005 z M 8.065,17.026 8,17.017 7.953,13.267 H 7.972 V 13.013 H 7.951 L 7.893,8.366 7.43,8.4 V 8.709 L 7.319,8.715 V 8.382 L 6.867,8.421 V 8.739 L 6.759,8.745 6.752,8.403 6.31,8.44 6.317,8.768 H 6.211 L 6.204,8.417 5.77,8.454 5.778,8.791 h -0.1 L 5.67,8.431 5.246,8.467 5.255,8.813 5.155,8.819 5.146,8.45 4.731,8.5 4.741,8.855 4.641,8.861 4.631,8.482 4.226,8.518 4.236,8.882 4.047,8.891 4.056,9.135 4.243,9.126 l 0.1,3.7 -0.163,-0.009 v 0.236 l 0.169,0.01 0.1,3.439 -0.131,-0.019 v 0.227 l 0.141,0.022 0.009,0.323 0.389,0.062 -0.008,-0.326 0.1,0.015 0.008,0.32 0.4,0.062 -0.008,-0.323 0.1,0.016 0.007,0.317 0.406,0.063 -0.007,-0.319 0.1,0.016 0.008,0.313 0.414,0.065 -0.006,-0.316 0.107,0.017 0.007,0.31 0.423,0.065 v -0.313 l 0.11,0.017 v 0.307 l 0.433,0.066 v -0.308 l 0.112,0.017 v 0.3 l 0.442,0.069 v -0.3 l 0.049,0.006 z M 7.677,6.452 7.859,6.943 7.99,6.4 7.833,5.838 Z"/>

</svg>
